frontend/src/assets/Board_Coin/Default/yellow-negest-king-active.svg

<svg width="27" height="27" viewBox="0 0 27 27" fill="none" xmlns="http://www.w3.org/2000/svg">
<g clip-path="url(#clip0_1189_5243)">
<g opacity="0.69">
<path d="M13.6201 26.5603C20.5237 26.5603 26.1201 20.9639 26.1201 14.0603C26.1201 7.15674 20.5237 1.5603 13.6201 1.5603C6.71656 1.5603 1.12012 7.15674 1.12012 14.0603C1.12012 20.9639 6.71656 26.5603 13.6201 26.5603Z" fill="#FFD015"/>
<path d="M13.62 24.67C19.4796 24.67 24.2297 19.9199 24.2297 14.0603C24.2297 8.2007 19.4796 3.45056 13.62 3.45056C7.76039 3.45056 3.01025 8.2007 3.01025 14.0603C3.01025 19.9199 7.76039 24.67 13.62 24.67Z" fill="#FFC501"/>
<path d="M19.17 5.00519C20.2266 6.65333 20.8401 8.61514 20.8401 10.72C20.8401 16.5779 16.0911 21.3298 10.2304 21.3298C8.19431 21.3298 6.29579 20.7574 4.68066 19.7642C6.56543 22.7082 9.86446 24.659 13.6202 24.659C19.4782 24.659 24.23 19.91 24.23 14.0493C24.23 10.2248 22.2049 6.87345 19.1727 5.00794L19.17 5.00519Z" fill="#F5B611"/>
<path d="M4.87044 15.0316C4.87044 9.85881 9.06371 5.66555 14.2365 5.66555C17.2604 5.66555 19.9486 7.09907 21.66 9.32227C20.0421 6.51576 17.0127 4.62549 13.5404 4.62549C8.36758 4.62549 4.17432 8.81875 4.17432 13.9915C4.17432 16.1405 4.89796 18.1188 6.11687 19.7009C5.32444 18.3279 4.87319 16.732 4.87319 15.0344L4.87044 15.0316Z" fill="#FFD453"/>
</g>
</g>
<circle cx="13.6201" cy="13.5603" r="12" stroke="#FFFEFE" stroke-width="2"/>
<path d="M6.58051 15.784C6.38504 15.2316 6.24906 14.6622 6.08192 14.0985C5.82412 13.2146 5.57483 12.3307 5.3227 11.444C5.3142 11.4157 5.30004 11.3902 5.32553 11.3477C5.7618 11.5772 6.2009 11.8066 6.63717 12.0361C7.0961 12.2769 7.55503 12.5205 8.01396 12.7642C8.04795 12.784 8.08478 12.8095 8.12728 12.784C8.15277 12.8237 8.18393 12.8548 8.22926 12.8746C8.96865 13.2599 9.70804 13.648 10.4446 14.039C10.5409 14.09 10.5834 14.0673 10.6316 13.9766C10.9658 13.3336 11.3058 12.6933 11.6429 12.0531C11.6684 12.0078 11.6911 11.9596 11.6826 11.9058C11.7761 11.8888 11.7817 11.801 11.8157 11.7387C12.3993 10.6253 12.98 9.51199 13.5608 8.39865C13.5778 8.36749 13.5948 8.33916 13.6259 8.28534C13.7818 8.57713 13.9262 8.84625 14.0679 9.11821C14.5296 10.0021 14.9914 10.8859 15.4532 11.7698C15.4815 11.8236 15.4872 11.8973 15.5693 11.9086C15.5608 11.9823 15.6005 12.0418 15.6316 12.1013C15.9603 12.7273 16.2945 13.3506 16.6203 13.9795C16.677 14.0871 16.7308 14.0815 16.8215 14.0333C17.3342 13.7613 17.8526 13.4951 18.3654 13.2231C18.6232 13.0871 18.881 12.9426 19.1388 12.8038C19.3683 12.6877 19.6005 12.5715 19.83 12.4554C19.8867 12.427 19.9462 12.4044 20.0028 12.3789C20.0028 13.2118 19.9887 14.0418 20.0142 14.8747C20.0283 15.3393 19.643 15.7954 19.0906 15.7925C14.9206 15.7812 10.7477 15.7869 6.57768 15.7869L6.58051 15.784ZM14.4645 13.9087C14.4645 13.5744 14.3993 13.3194 14.2435 13.0956C13.9687 12.7018 13.5268 12.6169 13.2123 12.886C12.7421 13.2939 12.6514 14.0786 13.014 14.5857C13.337 15.039 13.7874 15.073 14.167 14.6707C14.3852 14.4384 14.4475 14.1495 14.4617 13.9058L14.4645 13.9087Z" fill="#F8CD69" stroke="black" stroke-width="0.5" stroke-miterlimit="10"/>
<path d="M6.58057 15.7841C10.7506 15.7841 14.9235 15.7784 19.0935 15.7897C19.6459 15.7897 20.0312 15.3336 20.017 14.8719C19.9915 14.0418 20.0085 13.209 20.0057 12.3761C20.6205 12.0503 21.238 11.7217 21.8528 11.3959C21.8726 11.3846 21.8953 11.3846 21.9179 11.3789C21.9066 11.6197 21.8103 11.8435 21.7423 12.0758C21.272 13.7359 20.7961 15.396 20.3202 17.0561C20.3088 17.0957 20.2947 17.1325 20.2833 17.1722C20.0085 17.1722 19.7309 17.1722 19.4561 17.1722C15.2946 17.1722 11.1359 17.1722 6.97434 17.1722C6.84403 16.7104 6.71088 16.2487 6.58057 15.7869V15.7841Z" fill="#F6C144" stroke="black" stroke-width="0.5" stroke-miterlimit="10"/>
<path d="M19.4559 17.1693C19.7307 17.1693 20.0083 17.1693 20.2831 17.1693C20.2831 17.6821 20.2831 18.1977 20.2887 18.7104C20.2887 18.8124 20.2547 18.8464 20.1584 18.8323C20.1301 18.8294 20.1018 18.8323 20.0706 18.8323C15.7731 18.8323 11.4784 18.8323 7.18088 18.8351C7.01657 18.8351 6.94291 18.8096 6.95991 18.6226C6.97974 18.4158 6.96841 18.2062 6.96841 17.9994C10.8948 17.9994 14.8212 17.9994 18.7476 17.9994C18.7986 17.9994 18.8525 17.9994 18.9034 17.9994C19.1584 17.9937 19.3482 17.8436 19.4247 17.5971C19.47 17.4555 19.436 17.311 19.4474 17.1665L19.4559 17.1693Z" fill="#F2A23A" stroke="black" stroke-width="0.5" stroke-miterlimit="10"/>
<path d="M11.6857 11.903C11.6942 11.9568 11.6715 12.0049 11.646 12.0503C11.3089 12.6905 10.9689 13.3307 10.6347 13.9738C10.5865 14.0645 10.544 14.0871 10.4477 14.0361C9.71113 13.6452 8.97174 13.2599 8.23236 12.8718C8.18986 12.8492 8.1587 12.818 8.13037 12.7812C8.38533 11.393 8.64313 10.0049 8.90659 8.5658C9.0709 8.75843 9.20404 8.91708 9.33719 9.07855C10.1191 10.0191 10.901 10.9624 11.6857 11.903Z" fill="#F6C144" stroke="black" stroke-width="0.5" stroke-miterlimit="10"/>
<path d="M19.1412 12.801C18.8834 12.9398 18.6284 13.0843 18.3678 13.2202C17.855 13.4922 17.3366 13.7585 16.8238 14.0305C16.7304 14.0786 16.6794 14.0843 16.6227 13.9766C16.2969 13.3477 15.9655 12.7245 15.634 12.0984C15.6029 12.0389 15.5604 11.9794 15.5717 11.9058C16.2346 11.1069 16.9003 10.3052 17.5661 9.50631C17.8154 9.20602 18.0675 8.90573 18.3451 8.57428C18.6171 10.0106 18.8805 11.4072 19.1412 12.8038V12.801Z" fill="#F6C144" stroke="black" stroke-width="0.5" stroke-miterlimit="10"/>
<path d="M19.456 17.1693C19.4447 17.311 19.4787 17.4555 19.4333 17.5999C19.3569 17.8464 19.1642 17.9965 18.9121 18.0022C18.8611 18.0022 18.8073 18.0022 18.7563 18.0022C14.8299 18.0022 10.9035 18.0022 6.97705 18.0022C6.97705 17.7246 6.97705 17.447 6.97705 17.1665C11.1386 17.1665 15.2973 17.1665 19.4588 17.1665L19.456 17.1693Z" fill="#F4B461" stroke="black" stroke-width="0.5" stroke-miterlimit="10"/>
<path d="M21.9207 11.3785C21.9207 11.3785 21.9262 11.3702 21.9289 11.3647C21.9262 11.3675 21.9207 11.373 21.918 11.3757V11.3785H21.9207Z" fill="#F6C144" stroke="black" stroke-width="0.5" stroke-miterlimit="10"/>
<path d="M14.4643 13.9086C14.4502 14.1522 14.3878 14.4412 14.1697 14.6735C13.7901 15.0758 13.3397 15.0389 13.0167 14.5885C12.6513 14.0786 12.7447 13.2967 13.215 12.8888C13.5266 12.6196 13.9686 12.7046 14.2462 13.0984C14.402 13.3222 14.4672 13.5772 14.4672 13.9115L14.4643 13.9086Z" fill="#F2A23A" stroke="black" stroke-width="0.5" stroke-miterlimit="10"/>
<defs>
<clipPath id="clip0_1189_5243">
<rect width="25" height="25" fill="white" transform="translate(1.12012 1.5603)"/>
</clipPath>
</defs>
</svg>

<svg width="27" height="27" fill="none" xmlns="http://www.w3.org/2000/svg"><g opacity=".69" clip-path="url(#a)"><path d="M13.62 26.56c6.904 0 12.5-5.596 12.5-12.5 0-6.903-5.596-12.5-12.5-12.5-6.903 0-12.5 5.597-12.5 12.5 0 6.904 5.597 12.5 12.5 12.5z" fill="#FFD015"/><path d="M13.62 24.67c5.86 0 10.61-4.75 10.61-10.61 0-5.86-4.75-10.61-10.61-10.61-5.86 0-10.61 4.75-10.61 10.61 0 5.86 4.75 10.61 10.61 10.61z" fill="#FFC501"/><path d="M19.17 5.005a10.555 10.555 0 0 1 1.67 5.715c0 5.858-4.749 10.61-10.61 10.61-2.036 0-3.934-.573-5.55-1.566a10.598 10.598 0 0 0 8.94 4.895c5.858 0 10.61-4.749 10.61-10.61 0-3.824-2.025-7.176-5.057-9.041l-.003-.003z" fill="#F5B611"/><path d="M4.87 15.032a9.366 9.366 0 0 1 16.79-5.71A9.366 9.366 0 1 0 6.117 19.701a9.31 9.31 0 0 1-1.244-4.667l-.003-.002z" fill="#FFD453"/></g><circle cx="13.62" cy="13.56" r="12" stroke="#FFFEFE" stroke-width="2"/><path d="M6.58 15.784c-.195-.552-.33-1.122-.498-1.686-.258-.883-.507-1.767-.76-2.654-.008-.028-.022-.054.004-.096.436.23.875.459 1.311.688.46.24.918.485 1.377.728.034.02.07.046.113.02.026.04.057.07.102.09.74.386 1.479.774 2.216 1.165.096.051.138.028.187-.062.334-.643.674-1.284 1.01-1.924.026-.045.05-.093.04-.147.094-.017.1-.105.134-.167l1.745-3.34c.017-.032.034-.06.065-.114.156.292.3.561.442.833l1.385 2.652c.029.054.034.127.116.139-.008.073.031.133.063.192.328.626.662 1.25.988 1.878.057.108.11.103.201.054.513-.272 1.032-.538 1.544-.81.258-.136.516-.28.774-.42l.691-.348c.057-.028.116-.05.173-.076 0 .833-.014 1.663.011 2.496a.91.91 0 0 1-.923.918c-4.17-.012-8.343-.006-12.513-.006l.003-.003zm7.884-1.875c0-.335-.065-.59-.22-.813-.275-.394-.717-.48-1.032-.21-.47.408-.56 1.193-.198 1.7.323.453.773.487 1.153.085.218-.233.28-.521.295-.765l.002.003z" fill="#F8CD69" stroke="#000" stroke-width=".5" stroke-miterlimit="10"/><path d="M6.58 15.784c4.17 0 8.344-.006 12.513.006a.913.913 0 0 0 .924-.918c-.026-.83-.008-1.663-.011-2.496l1.847-.98c.02-.011.042-.011.065-.017-.011.24-.108.465-.176.697-.47 1.66-.946 3.32-1.422 4.98-.011.04-.025.076-.037.116H6.974c-.13-.462-.263-.923-.393-1.385v-.003z" fill="#F6C144" stroke="#000" stroke-width=".5" stroke-miterlimit="10"/><path d="M19.456 17.17h.827c0 .512 0 1.028.006 1.54 0 .102-.034.136-.13.122-.029-.003-.057 0-.088 0-4.298 0-8.593 0-12.89.003-.164 0-.238-.025-.221-.212.02-.207.008-.417.008-.624H18.903a.538.538 0 0 0 .522-.402c.045-.142.011-.286.022-.43l.009.002z" fill="#F2A23A" stroke="#000" stroke-width=".5" stroke-miterlimit="10"/><path d="M11.686 11.903c.008.054-.014.102-.04.147-.337.64-.677 1.28-1.011 1.924-.049.09-.091.113-.187.062-.737-.39-1.476-.776-2.216-1.164a.313.313 0 0 1-.102-.09c.255-1.389.513-2.777.777-4.216.164.192.297.351.43.513.782.94 1.564 1.883 2.349 2.824zM19.141 12.801c-.258.139-.513.283-.773.42-.513.271-1.031.537-1.544.81-.094.048-.145.053-.201-.054-.326-.63-.658-1.252-.989-1.879-.031-.06-.074-.119-.062-.192.663-.8 1.328-1.6 1.994-2.4l.78-.932c.271 1.437.535 2.833.795 4.23V12.8z" fill="#F6C144" stroke="#000" stroke-width=".5" stroke-miterlimit="10"/><path d="M19.456 17.17c-.011.141.023.285-.023.43a.54.54 0 0 1-.52.402H6.976v-.835h12.482l-.003.002z" fill="#F4B461" stroke="#000" stroke-width=".5" stroke-miterlimit="10"/><path d="m21.92 11.379.009-.014-.011.01v.004h.003z" fill="#F6C144" stroke="#000" stroke-width=".5" stroke-miterlimit="10"/><path d="M14.464 13.909c-.014.243-.076.532-.294.764-.38.403-.83.366-1.153-.085-.366-.51-.272-1.291.198-1.7.312-.268.754-.183 1.031.21.156.224.221.48.221.813l-.003-.002z" fill="#F2A23A" stroke="#000" stroke-width=".5" stroke-miterlimit="10"/><defs><clipPath id="a"><path fill="#fff" transform="translate(1.12 1.56)" d="M0 0h25v25H0z"/></clipPath></defs></svg>
